X:350
T: "Der reiche Schlemmer"
N: Z1030
O: Europa, Mitteleuropa, Deutschland, Niederrhein
R: Romanze, Ballade, Tod, geistlich, Sage (Hl. Lazarus)
M: 4/4
L: 1/16
K: A
E4 | A3GA2e8d2 | e2e2d2=c2B4
B2c2 | d4d4e4B2=c2 | d2=c2B2A2G4
E4 | A3AA2B2=c4B2A2 | B8E8 | =c6d2e4
d4 | e4B2=c2d4e4 | B8A4

@@@ Tune index: 10108
